X:2
T:Patrick O'Connor's No.1
C:Traditional
N:The Cashel Set, figure 6, tune 1 of 2
N:Play twice through
Z:Gordon Turnbull, Edinburgh
Z:gturnbull@theflow.org.uk
Z:http://www.theflow.org.uk
D:The Monks of the Screw, 'Brathar na nOl'
R:Polka
M:2/4
L:1/8
K:ADor
AA/A/ eA| eA e2 | dB gB | dB g2 |\
AA/A/ eA| eA e2 | dB gB | A2 A2 :||
ag ef/g/ | ag e2 | dB gB | dB g2 |\
ag ef/g/ | ag e2 | dB gB | A2 A2 :||
2 | dB gB | A2 A2 :||
ag ef/g/ | ag e2 | dB gB | dB g2 |\
ag ef/g/ | ag e2 | dB gB | A2 A2 :||
